!!!COM: Ockeghem, Johannes
!!!CDT: ~1425-1497/02/06
!!!OTL: Baisies moy
!!!AGN: Song; Chanson; Rondeau
!!!SCT: Ock3002
!!!SCA: Ock3002
!!!voices: 3
**kern	**text	**kern	**text	**kern	**text
*staff3	*staff3	*staff2	*staff2	*staff1	*staff1
*Ivox	*	*Ivox	*	*Ivox	*
*I"Contratenor	*	*I"Tenor	*	*I"Discantus	*
*I'Ct	*	*I'T	*	*I'D	*
*clefF4	*	*clefGv2	*	*clefG2	*
*k[b-]	*	*k[b-]	*	*k[b-]	*
*M2/1	*	*M2/1	*	*M2/1	*
*met(C|)	*	*met(C|)	*	*met(C|)	*
*>A	*>A	*>A	*>A	*>A	*>A
=1-	=1-	=1-	=1-	=1-	=1-
!!LO:TX:X=-34:Z=12:t=Form&colon; rondeau
!!LO:TX:X=-34:Z=32:t=Only the refrain text is extant; completion by Fabrice Fitch
0GG	Bai-	0G	Bai-	0r	.
=2	=2	=2	=2	=2	=2
1.D	-sies	1.B-	-sies	0r	.
2E\	.	2c\	.	.	.
=3	=3	=3	=3	=3	=3
1F	moy	1d	moy	0r	.
1C	dont	1e-i	dont	.	.
=4	=4	=4	=4	=4	=4
[0F	fort,	1c	fort,	0r	.
.	.	1f	ma	.	.
=5	=5	=5	=5	=5	=5
1F]	.	1f	mais-	0r	.
1C	ma	[1e-i	-tres-	.	.
=6	=6	=6	=6	=6	=6
1F	mais-	2e-\]	.	0r	.
.	.	2d\	.	.	.
1G	.	[1d	.	.	.
=7	=7	=7	=7	=7	=7
0E-i	-tres-	2d\]	.	0r	.
.	.	4c\	.	.	.
.	.	4B-\	.	.	.
.	.	1c	.	.	.
=8	=8	=8	=8	=8	=8
0D	-se,	[0d	-se,	0d	Bai-
=9	=9	=9	=9	=9	=9
1.D	Bai-	0d_	.	1.f	-sies
2E\	-sies	.	.	2g/	.
=10	=10	=10	=10	=10	=10
1F	moy	0d]	.	1a	moy
1G	dont	.	.	1b-	dont
=11	=11	=11	=11	=11	=11
0C	fort,	1.e-	ma	1g	fort,
.	.	.	.	1cc	ma
.	.	2c\	.	.	.
=12	=12	=12	=12	=12	=12
0r	.	1e-i	mais-	1cc	mais-
.	.	1d	.	[1b-	-tres-
=13	=13	=13	=13	=13	=13
0r	.	1A	-tres-	2b-\]	.
.	.	.	.	2a/	.
.	.	1c	.	[1a	.
=14	=14	=14	=14	=14	=14
1r	.	0B-	-se,	2a/]	.
.	.	.	.	4g/	.
.	.	.	.	4f/	.
1GG	A-	.	.	1g	.
=15	=15	=15	=15	=15	=15
1D	-col-	1r	.	0a	-se,
2C/	.	1A	A-	.	.
[2D\	.	.	.	.	.
=16	=16	=16	=16	=16	=16
2D\]	.	1B-	-col-	1r	.
2BB-/	.	.	.	.	.
1AA	-les	1c	-les	1a	A-
=17	=17	=17	=17	=17	=17
1GG	moy,	1d	moy,	1b-	-col-
1C	.	1e	.	1cc	-les
=18	=18	=18	=18	=18	=18
2BB-/	mon	2.f\	.	1dd	moy,
2F\	.	.	.	.	.
.	.	4d\	.	.	.
2G\	.	4e\	.	2b-\	mon
.	.	4d\	.	.	.
2B-\	.	[2g\	mon	2g/	.
=19	=19	=19	=19	=19	=19
1A	.	2g\]	.	1a	.
.	.	2f#i\	.	.	.
2G\	vray	1g	vray	1b-	vray
2GG/	.	.	.	.	.
=20	=20	=20	=20	=20	=20
2r	.	2f\	re-	2a/	re-
2AA/	re-	2e\	.	2cc\	.
2BB-/	.	2.d\	-fu-	2b-\	-fu-
2C/	.	.	.	[2a/	.
.	.	4c\	.	.	.
=21	=21	=21	=21	=21	=21
1D	-fu-	2A/	.	2a/]	.
.	.	1d	.	4g/	.
.	.	.	.	4f/	.
1AA	-ge,	.	.	2.e/	.
.	.	2c#i\	.	.	.
.	.	.	.	8d/L	.
.	.	.	.	8e/J	.
=22	=22	=22	=22	=22	=22
2r	.	2d\	.	2.f/	.
1D	re-	2B-\	.	.	.
.	.	.	.	4e/	.
.	.	1A	-ge,	2f/	.
[2C/	-fu-	.	.	[2e/	.
=23	=23	=23	=23	=23	=23
2C/]	.	1A	re-	2e/]	.
4BB-/	.	.	.	4d/	.
4AA/	.	.	.	4c/	.
2BB-/	.	1G	.	2.B-/	.
2GG/	.	.	.	.	.
.	.	.	.	4A/	.
=24	=24	=24	=24	=24	=24
1.FF	.	2.A/	-fu-	2.c/	.
.	.	4G/	.	4d/	.
.	.	2A/	.	2f/	.
[2C/	.	[2G/	.	[2e/	.
=25	=25	=25	=25	=25	=25
4C/]	.	4G/]	.	2e/]	.
4BB-/	.	4D/	.	.	.
2D\	.	2F/	.	1d	.
1AA	-ge,	1E	.	.	.
.	.	.	.	2c#i/	.
=26	=26	=26	=26	=26	=26
2r	.	1D	-ge,	2d/	-ge,
1D	re-	.	.	2.f/	re-
.	.	2r	.	.	.
.	.	.	.	4g/	.
[2F\	.	[2d\	re-	[2a/	.
=27	=27	=27	=27	=27	=27
2F\]	.	2d\]	.	4a/]	.
.	.	.	.	4b-\	.
2E\	.	2c\	.	2.cc\	-fu-
1C	.	1e-	.	.	.
.	.	.	.	4b-\	.
.	.	.	.	4a/	.
.	.	.	.	4g/	.
=28	=28	=28	=28	=28	=28
0D	-fu-	2.d\	-fu-	[0f#	-ge,
.	.	4c\	.	.	.
.	.	2A/	.	.	.
.	.	2B-\	.	.	.
=29	=29	=29	=29	=29	=29
1D	-ge,	2A/	.	0f#]	.
.	.	1B-	.	.	.
2.BB-/	re-	.	.	.	.
.	.	[2F/	.	.	.
4C/	.	.	.	.	.
*>B	*>B	*>B	*>B	*>B	*>B
=30	=30	=30	=30	=30	=30
2.D\	-fu-	2F/]	.	0r	.
.	.	2B-\	.	.	.
4BB-/	.	.	.	.	.
2AA/	.	2c\	.	.	.
2GG/	.	2B-\	.	.	.
=31	=31	=31	=31	=31	=31
2G\	.	2G/	.	0r	.
1G	.	2B-\	.	.	.
.	.	1A	.	.	.
2F#i\	.	.	.	.	.
=32	=32	=32	=32	=32	=32
0G	-ge,	0G	-ge,	0b-	Puis
=33	=33	=33	=33	=33	=33
1D	.	1r	.	1b-	que
1D	Puis	1F	Puis	1a	je
=34	=34	=34	=34	=34	=34
1.E-	que	1.G	que	1.g	vous
4D\	je	2A/	je	4f/	.
4C/	.	.	.	4e/	.
=35	=35	=35	=35	=35	=35
1BB-	vous	1B-	vous	1d	.
2C/	fais	1A	.	2e/	fais
[2D\	.	.	.	[2f/	.
=36	=36	=36	=36	=36	=36
2D\]	.	1B-	fais	2f/]	.
2E-i\	.	.	.	1B-	.
2D\	.	1BB-	.	.	.
2BB-/	.	.	.	2f/	mon
=37	=37	=37	=37	=37	=37
1AA	mon	1r	.	2e/	.
.	.	.	.	1f	seul
1BB-	seul	1B-	mon	.	.
.	.	.	.	2d/	.
=38	=38	=38	=38	=38	=38
1FF	.	1A	seul	1c	.
1BB-	ju-	1B-	ju-	2B-/	ju-
.	.	.	.	2f/	.
=39	=39	=39	=39	=39	=39
2GG/	.	1BB-	.	2g/	.
2AA/	.	.	.	1f	.
1BB-	.	2.B-\	.	.	.
.	.	.	.	[2b-\	.
.	.	4c\	.	.	.
=40	=40	=40	=40	=40	=40
1BB-	-ge,	2d\	.	2b-\]	.
.	.	2B-\	.	4a/	.
.	.	.	.	4g/	.
1F	.	1c	.	1a	.
=41	=41	=41	=41	=41	=41
2r	.	0B-	-ge,	1.b-	.
2.G\	ju-	.	.	.	.
4F\	.	.	.	.	.
2E\	.	.	.	2g/	.
=42	=42	=42	=42	=42	=42
[0D	-ge,	1r	.	0a	-ge,
.	.	1f	Pour	.	.
=43	=43	=43	=43	=43	=43
1D]	.	1f	pu-	2r	.
.	.	.	.	1dd	Pour
1r	.	1f	-gnir	.	.
.	.	.	.	2cc\	pu-
=44	=44	=44	=44	=44	=44
0D	Pour	0f	mon	2dd\	-gnir
.	.	.	.	4cc\	.
.	.	.	.	4b-\	.
.	.	.	.	2.a/	.
.	.	.	.	4g/	.
=45	=45	=45	=45	=45	=45
1GG	pu-	1g	.	1b-	.
1D	-gnir	2.f\	.	[1a	mon
.	.	4e\	.	.	.
=46	=46	=46	=46	=46	=46
2.F\	mon	2c\	.	2a/]	.
.	.	1d	.	4g/	.
4G\	.	.	.	4f/	.
1A	.	.	.	1e	.
.	.	2c#i\	.	.	.
=47	=47	=47	=47	=47	=47
2r	.	0d	cuer,	2d/	cuer,
1B-	cuer,	.	.	2.f/	.
.	.	.	.	8g/L	.
.	.	.	.	8a/J	.
2G\	.	.	.	2b-\	.
=48	=48	=48	=48	=48	=48
2F\	.	2r	.	2a/	.
2BB-/	.	1d	mon	2b-\	.
1F	.	.	.	4a/	.
.	.	.	.	4b-\	.
.	.	2c\	.	2cc\	.
=49	=49	=49	=49	=49	=49
1G	.	2G/	.	4b-\	.
.	.	.	.	4g/	.
.	.	2B-\	.	1g	.
1D	.	1A	.	.	.
.	.	.	.	2f#i/	.
=50	=50	=50	=50	=50	=50
2r	.	0G	cuer,	2.g/	.
2.E\	mon	.	.	.	.
.	.	.	.	4d/	.
.	.	.	.	2g/	.
4F\	.	.	.	.	.
2G\	.	.	.	[2b-\	mon
=51	=51	=51	=51	=51	=51
1D	.	1F	mon	4b-\]	.
.	.	.	.	4cc\	.
.	.	.	.	1dd	.
1GG	.	1B-	.	.	.
.	.	.	.	[2g/	.
=52	=52	=52	=52	=52	=52
0C	.	1.c	.	2g/]	.
.	.	.	.	2f/	.
.	.	.	.	1e	.
.	.	4B-\	.	.	.
.	.	4A/	.	.	.
=53	=53	=53	=53	=53	=53
0G	cuer	1B-	cuer	0d	cuer
.	.	2G/	si	.	.
.	.	[2G/	vous	.	.
=54	=54	=54	=54	=54	=54
0C	.	2G/]	.	1.g	si
.	.	4F/	.	.	.
.	.	4E/	.	.	.
.	.	1G	.	.	.
.	.	.	.	2e/	.
=55	=55	=55	=55	=55	=55
1.BB-	si	1D	bles-	1f	.
.	.	[1G	-se,	2d/	vous
2GG/	.	.	.	[2d/	bles-
=56	=56	=56	=56	=56	=56
2GG/	vous	1G]	.	2d/]	.
2EE/	.	.	.	4c/	.
.	.	.	.	4B-/	.
1DD	.	[1F	bles-	2.d/	.
.	.	.	.	4c/	.
=57	=57	=57	=57	=57	=57
0DD	bles-	2F/]	.	[0Al	-se.
.	.	2D/	.	.	.
.	.	[1Dl	-se.	.	.
=58	=58	=58	=58	=58	=58
0Dl	-se.	0D]	.	0A]	.
==	==	==	==	==	==
!!!RDF**kern: l=long note in original notation
!!!RDF**kern: i=editorial accidental
!!!RDF**kern: N=signum congruentiae
!!!ENC: Chris Gage 06-13-2012
!!!END: 2012/06/13/
!!!EED: Jesse Rodin
!!!EEV: 2018/01/18/
!!!ONB: Translated from MusicXML and edited on 2018/01/18/ by Craig Sapp
!!!COM: Ockeghem, Johannes
!!!CDT: ~1425-1497/02/06
!!!OTL: Baisies moy
!!!AGN: Song; Chanson; Rondeau
!!!SCT: Ock3002
!!!SCA: Ock3002
!!!voices: 3
*thru	*thru	*thru	*thru	*thru	*thru
*staff3	*	*staff2	*	*staff1	*
*Ivox	*	*Ivox	*	*Ivox	*
*I"Contratenor	*	*I"Tenor	*	*I"Discantus	*
*I'Ct	*	*I'T	*	*I'D	*
*clefF4	*	*clefGv2	*	*clefG2	*
*k[b-]	*	*k[b-]	*	*k[b-]	*
*M2/1	*	*M2/1	*	*M2/1	*
*met(C|)	*	*met(C|)	*	*met(C|)	*
*>A	*>A	*>A	*>A	*>A	*>A
!!LO:LB:g=z
=59-	=59	=59-	=59	=59-	=59
0GG	Ja	0G	Ja	0r	.
=60	=60	=60	=60	=60	=60
1.D	nul-	1.B-	nul-	0r	.
2E\	.	2c\	.	.	.
=61	=61	=61	=61	=61	=61
1F	-le o-	1d	-le o-	0r	.
1C	-choi-	1e-i	-choi-	.	.
=62	=62	=62	=62	=62	=62
[0F	-son	1c	-son	0r	.
.	.	1f	de	.	.
=63	=63	=63	=63	=63	=63
1F]	.	1f	tris-	0r	.
1C	de	[1e-i	-tes-	.	.
=64	=64	=64	=64	=64	=64
1F	tris-	2e-\]	.	0r	.
.	.	2d\	.	.	.
1G	.	[1d	.	.	.
=65	=65	=65	=65	=65	=65
0E-i	-tes-	2d\]	.	0r	.
.	.	4c\	.	.	.
.	.	4B-\	.	.	.
.	.	1c	.	.	.
=66	=66	=66	=66	=66	=66
0D	-se,	[0d	-se,	0d	Ja
=67	=67	=67	=67	=67	=67
1.D	Ja	0d_	.	1.f	nul-
2E\	nul-	.	.	2g/	.
=68	=68	=68	=68	=68	=68
1F	-le o-	0d]	.	1a	-le o-
1G	-choi-	.	.	1b-	-choi-
=69	=69	=69	=69	=69	=69
0C	-son,	1.e-	de	1g	-son
.	.	.	.	1cc	de
.	.	2c\	.	.	.
=70	=70	=70	=70	=70	=70
0r	.	1e-i	tris-	1cc	tris-
.	.	1d	.	[1b-	-tes-
=71	=71	=71	=71	=71	=71
0r	.	1A	-tes-	2b-\]	.
.	.	.	.	2a/	.
.	.	1c	.	[1a	.
=72	=72	=72	=72	=72	=72
1r	.	0B-	-se,	2a/]	.
.	.	.	.	4g/	.
.	.	.	.	4f/	.
1GG	Ne	.	.	1g	.
=73	=73	=73	=73	=73	=73
1D	vous	1r	.	0a	-se,
2C/	.	1A	Ne	.	.
[2D\	.	.	.	.	.
=74	=74	=74	=74	=74	=74
2D\]	.	1B-	vous	1r	.
2BB-/	.	.	.	.	.
1AA	don-	1c	don-	1a	Ne
=75	=75	=75	=75	=75	=75
1GG	-nay	1d	-nay	1b-	vous
1C	.	1e	.	1cc	don-
=76	=76	=76	=76	=76	=76
2BB-/	.	2.f\	.	1dd	-nay
2F\	.	.	.	.	.
.	.	4d\	.	.	.
2G\	.	4e\	.	2b-\	si
.	.	4d\	.	.	.
2B-\	.	[2g\	si	2g/	.
=77	=77	=77	=77	=77	=77
1A	si	2g\]	.	1a	.
.	.	2f#i\	.	.	.
2G\	Dieu	1g	Dieu	1b-	Dieu
2GG/	.	.	.	.	.
=78	=78	=78	=78	=78	=78
2r	.	2f\	me	2a/	me
2AA/	me	2e\	.	2cc\	.
2BB-/	.	2.d\	ju-	2b-\	ju-
2C/	.	.	.	[2a/	.
.	.	4c\	.	.	.
=79	=79	=79	=79	=79	=79
1D	ju-	2A/	.	2a/]	.
.	.	1d	.	4g/	.
.	.	.	.	4f/	.
1AA	-ge,	.	.	2.e/	.
.	.	2c#i\	.	.	.
.	.	.	.	8d/L	.
.	.	.	.	8e/J	.
=80	=80	=80	=80	=80	=80
2r	.	2d\	.	2.f/	.
1D	me	2B-\	.	.	.
.	.	.	.	4e/	.
.	.	1A	-ge,	2f/	.
[2C/	ju-	.	.	[2e/	.
=81	=81	=81	=81	=81	=81
2C/]	.	1A	me	2e/]	.
4BB-/	.	.	.	4d/	.
4AA/	.	.	.	4c/	.
2BB-/	.	1G	.	2.B-/	.
2GG/	.	.	.	.	.
.	.	.	.	4A/	.
=82	=82	=82	=82	=82	=82
1.FF	.	2.A/	ju-	2.c/	.
.	.	4G/	.	4d/	.
.	.	2A/	.	2f/	.
[2C/	.	[2G/	.	[2e/	.
=83	=83	=83	=83	=83	=83
4C/]	.	4G/]	.	2e/]	.
4BB-/	.	4D/	.	.	.
2D\	.	2F/	.	1d	.
1AA	-ge,	1E	.	.	.
.	.	.	.	2c#i/	.
=84	=84	=84	=84	=84	=84
2r	.	1D	-ge,	2d/	-ge,
1D	me	.	.	2.f/	ju-
.	.	2r	.	.	.
.	.	.	.	4g/	.
[2F\	.	[2d\	me	[2a/	.
=85	=85	=85	=85	=85	=85
2F\]	.	2d\]	.	4a/]	.
.	.	.	.	4b-\	.
2E\	.	2c\	.	2.cc\	.
1C	ju-	1e-	ju-	.	.
.	.	.	.	4b-\	.
.	.	.	.	4a/	.
.	.	.	.	4g/	.
=86	=86	=86	=86	=86	=86
0DN	-ge,&	2.d\N	-ge,&	[0f#N	-ge,&
.	.	4c\	.	.	.
.	.	2A/	.	.	.
.	.	2B-\	.	.	.
=	=	=	=	=	=
1D	.	2A/	.	0f#]	.
.	.	1B-	.	.	.
2.BB-/	.	.	.	.	.
.	.	2F/	.	.	.
4C/	.	.	.	.	.
!!!RDF**kern: l=long note in original notation
!!!RDF**kern: i=editorial accidental
!!!RDF**kern: N=signum congruentiae
!!!ENC: Chris Gage 06-13-2012
!!!END: 2012/06/13/
!!!EED: Jesse Rodin
!!!EEV: 2018/01/18/
!!!ONB: Translated from MusicXML and edited on 2018/01/18/ by Craig Sapp
!!!COM: Ockeghem, Johannes
!!!CDT: ~1425-1497/02/06
!!!OTL: Baisies moy
!!!AGN: Song; Chanson; Rondeau
!!!SCT: Ock3002
!!!SCA: Ock3002
!!!voices: 3
*thru	*thru	*thru	*thru	*thru	*thru
*staff3	*staff3	*staff2	*staff2	*staff1	*staff1
*Ivox	*	*Ivox	*	*Ivox	*
*I"Contratenor	*	*I"Tenor	*	*I"Discantus	*
*I'Ct	*	*I'T	*	*I'D	*
*clefF4	*	*clefGv2	*	*clefG2	*
*k[b-]	*	*k[b-]	*	*k[b-]	*
*M2/1	*	*M2/1	*	*M2/1	*
*met(C|)	*	*met(C|)	*	*met(C|)	*
*>A	*>A	*>A	*>A	*>A	*>A
!!LO:LB:g=z
=87-	=87-	=87-	=87-	=87-	=87-
0GG	Bai-	0G	Bai-	0r	.
=88	=88	=88	=88	=88	=88
1.D	-sies	1.B-	-sies	0r	.
2E\	.	2c\	.	.	.
=89	=89	=89	=89	=89	=89
1F	moy	1d	moy	0r	.
1C	dont	1e-i	dont	.	.
=90	=90	=90	=90	=90	=90
[0F	fort,	1c	fort,	0r	.
.	.	1f	ma	.	.
=91	=91	=91	=91	=91	=91
1F]	.	1f	mais-	0r	.
1C	ma	[1e-i	-tres-	.	.
=92	=92	=92	=92	=92	=92
1F	mais-	2e-\]	.	0r	.
.	.	2d\	.	.	.
1G	.	[1d	.	.	.
=93	=93	=93	=93	=93	=93
0E-i	-tres-	2d\]	.	0r	.
.	.	4c\	.	.	.
.	.	4B-\	.	.	.
.	.	1c	.	.	.
=94	=94	=94	=94	=94	=94
0D	-se,	[0d	-se,	0d	Bai-
=95	=95	=95	=95	=95	=95
1.D	Bai-	0d_	.	1.f	-sies
2E\	-sies	.	.	2g/	.
=96	=96	=96	=96	=96	=96
1F	moy	0d]	.	1a	moy
1G	dont	.	.	1b-	dont
=97	=97	=97	=97	=97	=97
0C	fort,	1.e-	ma	1g	fort,
.	.	.	.	1cc	ma
.	.	2c\	.	.	.
=98	=98	=98	=98	=98	=98
0r	.	1e-i	mais-	1cc	mais-
.	.	1d	.	[1b-	-tres-
=99	=99	=99	=99	=99	=99
0r	.	1A	-tres-	2b-\]	.
.	.	.	.	2a/	.
.	.	1c	.	[1a	.
=100	=100	=100	=100	=100	=100
1r	.	0B-	-se,	2a/]	.
.	.	.	.	4g/	.
.	.	.	.	4f/	.
1GG	A-	.	.	1g	.
=101	=101	=101	=101	=101	=101
1D	-col-	1r	.	0a	-se,
2C/	.	1A	A-	.	.
[2D\	.	.	.	.	.
=102	=102	=102	=102	=102	=102
2D\]	.	1B-	-col-	1r	.
2BB-/	.	.	.	.	.
1AA	-les	1c	-les	1a	A-
=103	=103	=103	=103	=103	=103
1GG	moy,	1d	moy,	1b-	-col-
1C	.	1e	.	1cc	-les
=104	=104	=104	=104	=104	=104
2BB-/	mon	2.f\	.	1dd	moy,
2F\	.	.	.	.	.
.	.	4d\	.	.	.
2G\	.	4e\	.	2b-\	mon
.	.	4d\	.	.	.
2B-\	.	[2g\	mon	2g/	.
=105	=105	=105	=105	=105	=105
1A	.	2g\]	.	1a	.
.	.	2f#i\	.	.	.
2G\	vray	1g	vray	1b-	vray
2GG/	.	.	.	.	.
=106	=106	=106	=106	=106	=106
2r	.	2f\	re-	2a/	re-
2AA/	re-	2e\	.	2cc\	.
2BB-/	.	2.d\	-fu-	2b-\	-fu-
2C/	.	.	.	[2a/	.
.	.	4c\	.	.	.
=107	=107	=107	=107	=107	=107
1D	-fu-	2A/	.	2a/]	.
.	.	1d	.	4g/	.
.	.	.	.	4f/	.
1AA	-ge,	.	.	2.e/	.
.	.	2c#i\	.	.	.
.	.	.	.	8d/L	.
.	.	.	.	8e/J	.
=108	=108	=108	=108	=108	=108
2r	.	2d\	.	2.f/	.
1D	re-	2B-\	.	.	.
.	.	.	.	4e/	.
.	.	1A	-ge,	2f/	.
[2C/	-fu-	.	.	[2e/	.
=109	=109	=109	=109	=109	=109
2C/]	.	1A	re-	2e/]	.
4BB-/	.	.	.	4d/	.
4AA/	.	.	.	4c/	.
2BB-/	.	1G	.	2.B-/	.
2GG/	.	.	.	.	.
.	.	.	.	4A/	.
=110	=110	=110	=110	=110	=110
1.FF	.	2.A/	-fu-	2.c/	.
.	.	4G/	.	4d/	.
.	.	2A/	.	2f/	.
[2C/	.	[2G/	.	[2e/	.
=111	=111	=111	=111	=111	=111
4C/]	.	4G/]	.	2e/]	.
4BB-/	.	4D/	.	.	.
2D\	.	2F/	.	1d	.
1AA	-ge,	1E	.	.	.
.	.	.	.	2c#i/	.
=112	=112	=112	=112	=112	=112
2r	.	1D	-ge,	2d/	-ge,
1D	re-	.	.	2.f/	re-
.	.	2r	.	.	.
.	.	.	.	4g/	.
[2F\	.	[2d\	re-	[2a/	.
=113	=113	=113	=113	=113	=113
2F\]	.	2d\]	.	4a/]	.
.	.	.	.	4b-\	.
2E\	.	2c\	.	2.cc\	-fu-
1C	-fu-	1e-	-fu-	.	.
.	.	.	.	4b-\	.
.	.	.	.	4a/	.
.	.	.	.	4g/	.
=114	=114	=114	=114	=114	=114
0DN	-ge,	2.d\N	-ge,	[0f#N	-ge,
.	.	4c\	.	.	.
.	.	2A/	.	.	.
.	.	2B-\	.	.	.
=	=	=	=	=	=
1D	.	2A/	.	0f#]	.
.	.	1B-	.	.	.
2.BB-/	.	.	.	.	.
.	.	2F/	.	.	.
4C/	.	.	.	.	.
!!!RDF**kern: l=long note in original notation
!!!RDF**kern: i=editorial accidental
!!!RDF**kern: N=signum congruentiae
!!!ENC: Chris Gage 06-13-2012
!!!END: 2012/06/13/
!!!EED: Jesse Rodin
!!!EEV: 2018/01/18/
!!!ONB: Translated from MusicXML and edited on 2018/01/18/ by Craig Sapp
!!!COM: Ockeghem, Johannes
!!!CDT: ~1425-1497/02/06
!!!OTL: Baisies moy
!!!AGN: Song; Chanson; Rondeau
!!!SCT: Ock3002
!!!SCA: Ock3002
!!!voices: 3
*staff3	*	*staff2	*	*staff1	*
*Ivox	*	*Ivox	*	*Ivox	*
*I"Contratenor	*	*I"Tenor	*	*I"Discantus	*
*I'Ct	*	*I'T	*	*I'D	*
*clefF4	*	*clefGv2	*	*clefG2	*
*k[b-]	*	*k[b-]	*	*k[b-]	*
*M2/1	*	*M2/1	*	*M2/1	*
*met(C|)	*	*met(C|)	*	*met(C|)	*
*>A	*>A	*>A	*>A	*>A	*>A
!!LO:LB:g=z
=115-	=115	=115-	=115	=115-	=115
0GG	Si	0G	Si	0r	.
=116	=116	=116	=116	=116	=116
1.D	vous	1.B-	vous	0r	.
2E\	.	2c\	.	.	.
=117	=117	=117	=117	=117	=117
1F	.	1d	.	0r	.
1C	su-	1e-i	su-	.	.
=118	=118	=118	=118	=118	=118
[0F	-ply-	1c	-ply-	0r	.
.	.	1f	-e en	.	.
=119	=119	=119	=119	=119	=119
1F]	.	1f	grant	0r	.
1C	-e en	[1e-i	des-	.	.
=120	=120	=120	=120	=120	=120
1F	grant	2e-\]	.	0r	.
.	.	2d\	.	.	.
1G	des-	[1d	-tres-	.	.
=121	=121	=121	=121	=121	=121
0E-i	-tres-	2d\]	.	0r	.
.	.	4c\	.	.	.
.	.	4B-\	.	.	.
.	.	1c	.	.	.
=122	=122	=122	=122	=122	=122
0D	-se,	[0d	-se,	0d	Si
=123	=123	=123	=123	=123	=123
1.D	Si	0d_	.	1.f	vous
2E\	.	.	.	2g/	.
=124	=124	=124	=124	=124	=124
1F	vous	0d]	.	1a	.
1G	su-	.	.	1b-	su-
=125	=125	=125	=125	=125	=125
0C	-plye,	1.e-	grant	1g	-ply-
.	.	.	.	1cc	-e en
.	.	2c\	.	.	.
=126	=126	=126	=126	=126	=126
0r	.	1e-i	.	1cc	grant
.	.	1d	des-	[1b-	des-
=127	=127	=127	=127	=127	=127
0r	.	1A	-tres-	2b-\]	.
.	.	.	.	2a/	.
.	.	1c	.	[1a	-tres-
=128	=128	=128	=128	=128	=128
1r	.	0B-	-se,	2a/]	.
.	.	.	.	4g/	.
.	.	.	.	4f/	.
1GG	Moy	.	.	1g	.
=129	=129	=129	=129	=129	=129
1D	ga-	1r	.	0a	-se,
2C/	.	1A	Moy	.	.
[2D\	.	.	.	.	.
=130	=130	=130	=130	=130	=130
2D\]	.	1B-	ga-	1r	.
2BB-/	.	.	.	.	.
1AA	-ran-	1c	-ran-	1a	Moy
=131	=131	=131	=131	=131	=131
1GG	-tir	1d	-tir	1b-	ga-
1C	.	1e	.	1cc	-ran-
=132	=132	=132	=132	=132	=132
2BB-/	de	2.f\	.	1dd	-tir
2F\	.	.	.	.	.
.	.	4d\	.	.	.
2G\	.	4e\	.	2b-\	de
.	.	4d\	.	.	.
2B-\	.	[2g\	de	2g/	.
=133	=133	=133	=133	=133	=133
1A	.	2g\]	.	1a	.
.	.	2f#i\	.	.	.
2G\	tel	1g	tel	1b-	tel
2GG/	.	.	.	.	.
=134	=134	=134	=134	=134	=134
2r	.	2f\	de-	2a/	de-
2AA/	de-	2e\	.	2cc\	.
2BB-/	.	2.d\	-lu-	2b-\	-lu-
2C/	.	.	.	[2a/	.
.	.	4c\	.	.	.
=135	=135	=135	=135	=135	=135
1D	-lu-	2A/	.	2a/]	.
.	.	1d	.	4g/	.
.	.	.	.	4f/	.
1AA	-ge,	.	.	2.e/	.
.	.	2c#i\	.	.	.
.	.	.	.	8d/L	.
.	.	.	.	8e/J	.
=136	=136	=136	=136	=136	=136
2r	.	2d\	.	2.f/	.
1D	de-	2B-\	.	.	.
.	.	.	.	4e/	.
.	.	1A	-ge,	2f/	.
[2C/	-lu-	.	.	[2e/	.
=137	=137	=137	=137	=137	=137
2C/]	.	1A	de-	2e/]	.
4BB-/	.	.	.	4d/	.
4AA/	.	.	.	4c/	.
2BB-/	.	1G	.	2.B-/	.
2GG/	.	.	.	.	.
.	.	.	.	4A/	.
=138	=138	=138	=138	=138	=138
1.FF	.	2.A/	-lu-	2.c/	.
.	.	4G/	.	4d/	.
.	.	2A/	.	2f/	.
[2C/	.	[2G/	.	[2e/	.
=139	=139	=139	=139	=139	=139
4C/]	.	4G/]	.	2e/]	.
4BB-/	.	4D/	.	.	.
2D\	.	2F/	.	1d	.
1AA	-ge,	1E	.	.	.
.	.	.	.	2c#i/	.
=140	=140	=140	=140	=140	=140
2r	.	1D	-ge,	2d/	-ge,
1D	de-	.	.	2.f/	de-
.	.	2r	.	.	.
.	.	.	.	4g/	.
[2F\	.	[2d\	de-	[2a/	.
=141	=141	=141	=141	=141	=141
2F\]	.	2d\]	.	4a/]	.
.	.	.	.	4b-\	.
2E\	.	2c\	.	2.cc\	-lu-
1C	.	1e-	.	.	.
.	.	.	.	4b-\	.
.	.	.	.	4a/	.
.	.	.	.	4g/	.
=142	=142	=142	=142	=142	=142
0D	-lu-	2.d\	-lu-	[0f#	-ge,
.	.	4c\	.	.	.
.	.	2A/	.	.	.
.	.	2B-\	.	.	.
=143	=143	=143	=143	=143	=143
1D	-ge,	2A/	.	0f#]	.
.	.	1B-	.	.	.
2.BB-/	de-	.	.	.	.
.	.	[2F/	.	.	.
4C/	.	.	.	.	.
*>B	*>B	*>B	*>B	*>B	*>B
=144	=144	=144	=144	=144	=144
2.D\	-lu-	2F/]	.	0r	.
.	.	2B-\	.	.	.
4BB-/	.	.	.	.	.
2AA/	.	2c\	.	.	.
2GG/	.	2B-\	.	.	.
=145	=145	=145	=145	=145	=145
2G\	.	2G/	.	0r	.
1G	.	2B-\	.	.	.
.	.	1A	.	.	.
2F#i\	.	.	.	.	.
=146	=146	=146	=146	=146	=146
0G	-ge,	0G	-ge,	0b-	Car
=147	=147	=147	=147	=147	=147
1D	.	1r	.	1b-	nul
1D	Car	1F	Car	1a	ne
=148	=148	=148	=148	=148	=148
1.E-	nul	1.G	nul	1.g	trou-
4D\	ne	2A/	ne	4f/	.
4C/	.	.	.	4e/	.
=149	=149	=149	=149	=149	=149
1BB-	trou-	1B-	trou-	1d	.
2C/	-ve	1A	.	2e/	-ve
[2D\	.	.	.	[2f/	.
=150	=150	=150	=150	=150	=150
2D\]	.	1B-	-ve	2f/]	.
2E-i\	.	.	.	1B-	.
2D\	.	1BB-	.	.	.
2BB-/	.	.	.	2f/	qui
=151	=151	=151	=151	=151	=151
1AA	qui	1r	.	2e/	.
.	.	.	.	1f	n'ad-
1BB-	n'ad-	1B-	qui	.	.
.	.	.	.	2d/	.
=152	=152	=152	=152	=152	=152
1FF	.	1A	n'ad-	1c	.
1BB-	-ju-	1B-	-ju-	2B-/	-ju-
.	.	.	.	2f/	.
=153	=153	=153	=153	=153	=153
2GG/	.	1BB-	.	2g/	.
2AA/	.	.	.	1f	.
1BB-	.	2.B-\	.	.	.
.	.	.	.	[2b-\	.
.	.	4c\	.	.	.
=154	=154	=154	=154	=154	=154
1BB-	-ge,	2d\	.	2b-\]	.
.	.	2B-\	.	4a/	.
.	.	.	.	4g/	.
1F	n'a-	1c	.	1a	.
=155	=155	=155	=155	=155	=155
2r	.	0B-	-ge,	1.b-	.
2.G\	-dju-	.	.	.	.
4F\	.	.	.	.	.
2E\	.	.	.	2g/	.
=156	=156	=156	=156	=156	=156
[0D	-ge,	1r	.	0a	-ge,
.	.	1f	Qu'au-	.	.
=157	=157	=157	=157	=157	=157
1D]	.	1f	-tre-	2r	.
.	.	.	.	1dd	Qu'au-
1r	.	1f	-ment	.	.
.	.	.	.	2cc\	-tre-
=158	=158	=158	=158	=158	=158
0D	Qu'au-	0f	me	2dd\	-ment
.	.	.	.	4cc\	.
.	.	.	.	4b-\	.
.	.	.	.	2.a/	.
.	.	.	.	4g/	.
=159	=159	=159	=159	=159	=159
1GG	-tre-	1g	.	1b-	.
1D	-ment	2.f\	fe-	[1a	me
.	.	4e\	.	.	.
=160	=160	=160	=160	=160	=160
2.F\	me	2c\	.	2a/]	.
.	.	1d	.	4g/	.
4G\	.	.	.	4f/	.
1A	.	.	.	1e	.
.	.	2c#i\	.	.	.
=161	=161	=161	=161	=161	=161
2r	.	0d	-rez	2d/	fe-
1B-	fe-	.	.	2.f/	-rez,
.	.	.	.	8g/L	.
.	.	.	.	8a/J	.
2G\	.	.	.	2b-\	.
=162	=162	=162	=162	=162	=162
2F\	.	2r	.	2a/	.
2BB-/	.	1d	me	2b-\	.
1F	.	.	.	4a/	.
.	.	.	.	4b-\	.
.	.	2c\	.	2cc\	.
=163	=163	=163	=163	=163	=163
1G	-rez	2G/	.	4b-\	.
.	.	.	.	4g/	.
.	.	2B-\	.	1g	.
1D	.	1A	fe-	.	.
.	.	.	.	2f#i/	.
=164	=164	=164	=164	=164	=164
2r	.	0G	-rez,	2.g/	.
2.E\	fe-	.	.	.	.
.	.	.	.	4d/	.
.	.	.	.	2g/	.
4F\	.	.	.	.	.
2G\	.	.	.	[2b-\	me
=165	=165	=165	=165	=165	=165
1D	.	1F	me	4b-\]	.
.	.	.	.	4cc\	.
.	.	.	.	1dd	.
1GG	.	1B-	fe-	.	.
.	.	.	.	[2g/	fe-
=166	=166	=166	=166	=166	=166
0C	.	1.c	-rez	2g/]	.
.	.	.	.	2f/	.
.	.	.	.	1e	-rez
.	.	4B-\	.	.	.
.	.	4A/	.	.	.
=167	=167	=167	=167	=167	=167
0G	-rez	1B-	.	0d	.
.	.	2G/	ru-	.	.
.	.	[2G/	-des-	.	.
=168	=168	=168	=168	=168	=168
0C	.	2G/]	.	1.g	ru-
.	.	4F/	.	.	.
.	.	4E/	.	.	.
.	.	1G	.	.	.
.	.	.	.	2e/	.
=169	=169	=169	=169	=169	=169
1.BB-	ru-	1D	-se,	1f	-des-
.	.	[1G	ru-	2d/	.
2GG/	.	.	.	[2d/	.
=170	=170	=170	=170	=170	=170
2GG/	-des-	1G]	.	2d/]	.
2EE/	.	.	.	4c/	.
.	.	.	.	4B-/	.
1DD	.	[1F	-des-	2.d/	.
.	.	.	.	4c/	.
=171	=171	=171	=171	=171	=171
0DD	.	2F/]	.	[0Al	-se.
.	.	2D/	.	.	.
.	.	[1Dl	-se.	.	.
=172	=172	=172	=172	=172	=172
0Dl	-se.	0D]	.	0A]	.
==	=	==	=	==	=
!!!RDF**kern: l=long note in original notation
!!!RDF**kern: i=editorial accidental
!!!RDF**kern: N=signum congruentiae
!!!ENC: Chris Gage 06-13-2012
!!!END: 2012/06/13/
!!!EED: Jesse Rodin
!!!EEV: 2018/01/18/
!!!ONB: Translated from MusicXML and edited on 2018/01/18/ by Craig Sapp
!!!COM: Ockeghem, Johannes
!!!CDT: ~1425-1497/02/06
!!!OTL: Baisies moy
!!!AGN: Song; Chanson; Rondeau
!!!SCT: Ock3002
!!!SCA: Ock3002
!!!voices: 3
*staff3	*staff3	*staff2	*staff2	*staff1	*staff1
*Ivox	*	*Ivox	*	*Ivox	*
*I"Contratenor	*	*I"Tenor	*	*I"Discantus	*
*I'Ct	*	*I'T	*	*I'D	*
*clefF4	*	*clefGv2	*	*clefG2	*
*k[b-]	*	*k[b-]	*	*k[b-]	*
*M2/1	*	*M2/1	*	*M2/1	*
*met(C|)	*	*met(C|)	*	*met(C|)	*
*>A	*>A	*>A	*>A	*>A	*>A
!!LO:LB:g=z
=173-	=173-	=173-	=173-	=173-	=173-
0GG	Bai-	0G	Bai-	0r	.
=174	=174	=174	=174	=174	=174
1.D	-sies	1.B-	-sies	0r	.
2E\	.	2c\	.	.	.
=175	=175	=175	=175	=175	=175
1F	moy	1d	moy	0r	.
1C	dont	1e-i	dont	.	.
=176	=176	=176	=176	=176	=176
[0F	fort,	1c	fort,	0r	.
.	.	1f	ma	.	.
=177	=177	=177	=177	=177	=177
1F]	.	1f	mais-	0r	.
1C	ma	[1e-i	-tres-	.	.
=178	=178	=178	=178	=178	=178
1F	mais-	2e-\]	.	0r	.
.	.	2d\	.	.	.
1G	.	[1d	.	.	.
=179	=179	=179	=179	=179	=179
0E-i	-tres-	2d\]	.	0r	.
.	.	4c\	.	.	.
.	.	4B-\	.	.	.
.	.	1c	.	.	.
=180	=180	=180	=180	=180	=180
0D	-se,	[0d	-se,	0d	Bai-
=181	=181	=181	=181	=181	=181
1.D	Bai-	0d_	.	1.f	-sies
2E\	-sies	.	.	2g/	.
=182	=182	=182	=182	=182	=182
1F	moy	0d]	.	1a	moy
1G	dont	.	.	1b-	dont
=183	=183	=183	=183	=183	=183
0C	fort,	1.e-	ma	1g	fort,
.	.	.	.	1cc	ma
.	.	2c\	.	.	.
=184	=184	=184	=184	=184	=184
0r	.	1e-i	mais-	1cc	mais-
.	.	1d	.	[1b-	-tres-
=185	=185	=185	=185	=185	=185
0r	.	1A	-tres-	2b-\]	.
.	.	.	.	2a/	.
.	.	1c	.	[1a	.
=186	=186	=186	=186	=186	=186
1r	.	0B-	-se,	2a/]	.
.	.	.	.	4g/	.
.	.	.	.	4f/	.
1GG	A-	.	.	1g	.
=187	=187	=187	=187	=187	=187
1D	-col-	1r	.	0a	-se,
2C/	.	1A	A-	.	.
[2D\	.	.	.	.	.
=188	=188	=188	=188	=188	=188
2D\]	.	1B-	-col-	1r	.
2BB-/	.	.	.	.	.
1AA	-les	1c	-les	1a	A-
=189	=189	=189	=189	=189	=189
1GG	moy,	1d	moy,	1b-	-col-
1C	.	1e	.	1cc	-les
=190	=190	=190	=190	=190	=190
2BB-/	.	2.f\	.	1dd	moy,
2F\	.	.	.	.	.
.	.	4d\	.	.	.
2G\	.	4e\	.	2b-\	mon
.	.	4d\	.	.	.
2B-\	.	[2g\	mon	2g/	.
=191	=191	=191	=191	=191	=191
1A	mon	2g\]	.	1a	.
.	.	2f#i\	.	.	.
2G\	vray	1g	vray	1b-	vray
2GG/	.	.	.	.	.
=192	=192	=192	=192	=192	=192
2r	.	2f\	re-	2a/	re-
2AA/	re-	2e\	.	2cc\	.
2BB-/	.	2.d\	-fu-	2b-\	-fu-
2C/	.	.	.	[2a/	.
.	.	4c\	.	.	.
=193	=193	=193	=193	=193	=193
1D	-fu-	2A/	.	2a/]	.
.	.	1d	.	4g/	.
.	.	.	.	4f/	.
1AA	-ge,	.	.	2.e/	.
.	.	2c#i\	.	.	.
.	.	.	.	8d/L	.
.	.	.	.	8e/J	.
=194	=194	=194	=194	=194	=194
2r	.	2d\	.	2.f/	.
1D	re-	2B-\	.	.	.
.	.	.	.	4e/	.
.	.	1A	-ge,	2f/	.
[2C/	-fu-	.	.	[2e/	.
=195	=195	=195	=195	=195	=195
2C/]	.	1A	re-	2e/]	.
4BB-/	.	.	.	4d/	.
4AA/	.	.	.	4c/	.
2BB-/	.	1G	.	2.B-/	.
2GG/	.	.	.	.	.
.	.	.	.	4A/	.
=196	=196	=196	=196	=196	=196
1.FF	.	2.A/	-fu-	2.c/	.
.	.	4G/	.	4d/	.
.	.	2A/	.	2f/	.
[2C/	.	[2G/	.	[2e/	.
=197	=197	=197	=197	=197	=197
4C/]	.	4G/]	.	2e/]	.
4BB-/	.	4D/	.	.	.
2D\	.	2F/	.	1d	.
1AA	-ge,	1E	.	.	.
.	.	.	.	2c#i/	.
=198	=198	=198	=198	=198	=198
2r	.	1D	-ge,	2d/	-ge,
1D	re-	.	.	2.f/	re-
.	.	2r	.	.	.
.	.	.	.	4g/	.
[2F\	.	[2d\	re-	[2a/	.
=199	=199	=199	=199	=199	=199
2F\]	.	2d\]	.	4a/]	.
.	.	.	.	4b-\	.
2E\	.	2c\	.	2.cc\	-fu-
1C	.	1e-	.	.	.
.	.	.	.	4b-\	.
.	.	.	.	4a/	.
.	.	.	.	4g/	.
=200	=200	=200	=200	=200	=200
0D	-fu-	2.d\	-fu-	[0f#	-ge,
.	.	4c\	.	.	.
.	.	2A/	.	.	.
.	.	2B-\	.	.	.
=201	=201	=201	=201	=201	=201
1D	-ge,	2A/	.	0f#]	.
.	.	1B-	.	.	.
2.BB-/	re-	.	.	.	.
.	.	[2F/	.	.	.
4C/	.	.	.	.	.
*>B	*>B	*>B	*>B	*>B	*>B
=202	=202	=202	=202	=202	=202
2.D\	-fu-	2F/]	.	0r	.
.	.	2B-\	.	.	.
4BB-/	.	.	.	.	.
2AA/	.	2c\	.	.	.
2GG/	.	2B-\	.	.	.
=203	=203	=203	=203	=203	=203
2G\	.	2G/	.	0r	.
1G	.	2B-\	.	.	.
.	.	1A	.	.	.
2F#i\	.	.	.	.	.
=204	=204	=204	=204	=204	=204
0G	-ge,	0G	-ge,	0b-	Puis
=205	=205	=205	=205	=205	=205
1D	.	1r	.	1b-	que
1D	Puis	1F	Puis	1a	je
=206	=206	=206	=206	=206	=206
1.E-	que	1.G	que	1.g	vous
4D\	je	2A/	je	4f/	.
4C/	.	.	.	4e/	.
=207	=207	=207	=207	=207	=207
1BB-	vous	1B-	vous	1d	.
2C/	fais	1A	.	2e/	fais
[2D\	.	.	.	[2f/	.
=208	=208	=208	=208	=208	=208
2D\]	.	1B-	fais	2f/]	.
2E-i\	.	.	.	1B-	.
2D\	.	1BB-	.	.	.
2BB-/	.	.	.	2f/	mon
=209	=209	=209	=209	=209	=209
1AA	mon	1r	.	2e/	.
.	.	.	.	1f	seul
1BB-	seul	1B-	mon	.	.
.	.	.	.	2d/	.
=210	=210	=210	=210	=210	=210
1FF	.	1A	seul	1c	.
1BB-	ju-	1B-	ju-	2B-/	ju-
.	.	.	.	2f/	.
=211	=211	=211	=211	=211	=211
2GG/	.	1BB-	.	2g/	.
2AA/	.	.	.	1f	.
1BB-	.	2.B-\	.	.	.
.	.	.	.	[2b-\	.
.	.	4c\	.	.	.
=212	=212	=212	=212	=212	=212
1BB-	-ge,	2d\	.	2b-\]	.
.	.	2B-\	.	4a/	.
.	.	.	.	4g/	.
1F	.	1c	.	1a	.
=213	=213	=213	=213	=213	=213
2r	.	0B-	-ge,	1.b-	.
2.G\	ju-	.	.	.	.
4F\	.	.	.	.	.
2E\	.	.	.	2g/	.
=214	=214	=214	=214	=214	=214
[0D	-ge,	1r	.	0a	-ge,
.	.	1f	Pour	.	.
=215	=215	=215	=215	=215	=215
1D]	.	1f	pu-	2r	.
.	.	.	.	1dd	Pour
1r	.	1f	-gnir	.	.
.	.	.	.	2cc\	pu-
=216	=216	=216	=216	=216	=216
0D	Pour	0f	mon	2dd\	-gnir
.	.	.	.	4cc\	.
.	.	.	.	4b-\	.
.	.	.	.	2.a/	.
.	.	.	.	4g/	.
=217	=217	=217	=217	=217	=217
1GG	pu-	1g	.	1b-	.
1D	-gnir	2.f\	.	[1a	mon
.	.	4e\	.	.	.
=218	=218	=218	=218	=218	=218
2.F\	mon	2c\	.	2a/]	.
.	.	1d	.	4g/	.
4G\	.	.	.	4f/	.
1A	.	.	.	1e	.
.	.	2c#i\	.	.	.
=219	=219	=219	=219	=219	=219
2r	.	0d	cuer,	2d/	cuer,
1B-	cuer,	.	.	2.f/	.
.	.	.	.	8g/L	.
.	.	.	.	8a/J	.
2G\	.	.	.	2b-\	.
=220	=220	=220	=220	=220	=220
2F\	.	2r	.	2a/	.
2BB-/	.	1d	mon	2b-\	.
1F	.	.	.	4a/	.
.	.	.	.	4b-\	.
.	.	2c\	.	2cc\	.
=221	=221	=221	=221	=221	=221
1G	.	2G/	.	4b-\	.
.	.	.	.	4g/	.
.	.	2B-\	.	1g	.
1D	.	1A	.	.	.
.	.	.	.	2f#i/	.
=222	=222	=222	=222	=222	=222
2r	.	0G	cuer,	2.g/	.
2.E\	mon	.	.	.	.
.	.	.	.	4d/	.
.	.	.	.	2g/	.
4F\	.	.	.	.	.
2G\	.	.	.	[2b-\	mon
=223	=223	=223	=223	=223	=223
1D	.	1F	mon	4b-\]	.
.	.	.	.	4cc\	.
.	.	.	.	1dd	.
1GG	.	1B-	.	.	.
.	.	.	.	[2g/	.
=224	=224	=224	=224	=224	=224
0C	.	1.c	.	2g/]	.
.	.	.	.	2f/	.
.	.	.	.	1e	.
.	.	4B-\	.	.	.
.	.	4A/	.	.	.
=225	=225	=225	=225	=225	=225
0G	cuer	1B-	cuer	0d	cuer
.	.	2G/	si	.	.
.	.	[2G/	vous	.	.
=226	=226	=226	=226	=226	=226
0C	.	2G/]	.	1.g	si
.	.	4F/	.	.	.
.	.	4E/	.	.	.
.	.	1G	bles-	.	.
.	.	.	.	2e/	.
=227	=227	=227	=227	=227	=227
1.BB-	si	1D	.	1f	.
.	.	[1G	-se,	2d/	vous
2GG/	.	.	.	[2d/	bles-
=228	=228	=228	=228	=228	=228
2GG/	vous	1G]	.	2d/]	.
2EE/	.	.	.	4c/	.
.	.	.	.	4B-/	.
1DD	.	[1F	bles-	2.d/	.
.	.	.	.	4c/	.
=229	=229	=229	=229	=229	=229
0DD	bles-	2F/]	.	[0Al	-se.
.	.	2D/	.	.	.
.	.	[1Dl	-se.	.	.
=230	=230	=230	=230	=230	=230
0Dl	-se.	0D]	.	0A]	.
==	==	==	==	==	==
*-	*-	*-	*-	*-	*-
!!!RDF**kern: l=long note in original notation
!!!RDF**kern: i=editorial accidental
!!!RDF**kern: N=signum congruentiae
!!!ENC: Chris Gage 06-13-2012
!!!END: 2012/06/13/
!!!EED: Jesse Rodin
!!!EEV: 2018/01/18/
!!!ONB: Translated from MusicXML and edited on 2018/01/18/ by Craig Sapp
!!muse2ps: C^@{COM}^i2I150v95,95,120z18c106l2650
